icon_installer/data/icons/scalable/actions/show-globe-alt-symbolic.svg

<?xml version="1.0" encoding="UTF-8"?>
<svg height="16px" viewBox="0 0 16 16" width="16px" xmlns="http://www.w3.org/2000/svg">
    <g fill="#222222">
        <path d="m 7.5 0 c -4.128906 0 -7.5 3.371094 -7.5 7.5 s 3.371094 7.5 7.5 7.5 s 7.5 -3.371094 7.5 -7.5 s -3.371094 -7.5 -7.5 -7.5 z m 0 2 c 3.050781 0 5.5 2.449219 5.5 5.5 s -2.449219 5.5 -5.5 5.5 s -5.5 -2.449219 -5.5 -5.5 s 2.449219 -5.5 5.5 -5.5 z m 0 0"/>
        <path d="m 4.207031 3.097656 c -1.332031 1 -2.140625 2.542969 -2.207031 4.203125 l 0.210938 0.214844 l 0.882812 0.878906 v 0.886719 l 0.882812 0.878906 v 1.589844 c 0.273438 0.230469 0.570313 0.433594 0.882813 0.605469 v -0.429688 l 0.882813 -0.878906 v -0.886719 l 0.882812 -0.878906 l -0.882812 -0.886719 l -0.882813 -0.878906 h -1.765625 v -0.886719 h 0.882812 v -0.878906 l 0.882813 -0.886719 h 0.882813 v -0.878906 l -0.882813 -0.886719 z m 5.066407 0 v 0.886719 h -0.882813 l -0.882813 0.878906 l 0.882813 0.886719 l 0.882813 -0.886719 h 1.765624 l 0.910157 1.324219 v 0.441406 l 0.855469 0.886719 v -1.535156 c -0.335938 -1.152344 -1.039063 -2.164063 -2 -2.882813 z m 3.53125 4.417969 l -0.910157 0.050781 l -0.855469 -0.9375 v -0.21875 h -1.078124 l -0.441407 -0.664062 h -1.128906 l -0.882813 0.882812 v 0.882813 l 0.882813 0.882812 h 0.882813 l 0.46875 0.664063 v 1.765625 l 1.191406 1.011719 c 0.371094 -0.296876 0.703125 -0.640626 0.988281 -1.023438 v -2.417969 z m 0 0" fill-opacity="0.34902"/>
    </g>
</svg>

<svg xmlns="http://www.w3.org/2000/svg" width="16" height="16"><g fill="#222"><path d="M7.5 0C3.371 0 0 3.371 0 7.5S3.371 15 7.5 15 15 11.629 15 7.5 11.629 0 7.5 0zm0 2C10.55 2 13 4.45 13 7.5S10.55 13 7.5 13 2 10.55 2 7.5 4.45 2 7.5 2zm0 0"/><path fill-opacity=".349" d="M4.207 3.098A5.53 5.53 0 0 0 2 7.3l.21.215.884.879v.886l.883.88v1.589c.273.23.57.434.882.605v-.43l.883-.878v-.887l.883-.879-.883-.886-.883-.88H3.094V6.63h.883v-.88l.882-.887h.883v-.879l-.883-.886zm5.066 0v.886h-.882l-.883.88.883.886.882-.887h1.766l.91 1.324v.442l.856.887V5.98a5.537 5.537 0 0 0-2-2.882zm3.532 4.418-.91.05-.856-.937V6.41H9.961l-.441-.664H8.39l-.882.883v.883l.883.883h.882l.47.664v1.765l1.19 1.012c.372-.297.704-.64.989-1.024V8.395zm0 0"/></g></svg>
